X:7898
T:Waltz of the Little Girls, The
O:england
D:The Pearl, Phil Cunningham/Aly Bain
C:Trad/Rasmussen
N:Originally in Eb
M:3/4
L:1/8
K:D
dc BA|F2 FE DE|F2 dc BA|F2 FE DF|G2 GF GA|B2 BA GF|E2 EF GA|
B2 BA Bc|BAdc BA|F2 FE DE|F2 dc BA|F2 FE DF|G2 GF GA|B2 BA GF|
E2 EF GA|Bd/B/ Ac Ac|d2::DF Ad|c2 cB AF|DF BF AF|E3 A Ec|
d2 DF Ad|c2 cB AF|DF BF AF|E3 A Ec|d2:|]
